remix/Design/brush-4-fill.svg

<svg viewBox="0 0 24 24" fill="currentColor" xmlns="http://www.w3.org/2000/svg"><path d="M20 15.9967H4V17.9967H20V15.9967ZM3 13.9967V3.9967C3 3.44442 3.44772 2.9967 4 2.9967H7V11.2694H9V2.9967H20C20.5523 2.9967 21 3.44442 21 3.9967V13.9967H22V18.9967C22 19.549 21.5523 19.9967 21 19.9967H13V22.9967H11V19.9967H3C2.44772 19.9967 2 19.549 2 18.9967V13.9967H3Z"/></svg>

<svg viewBox="0 0 24 24" xmlns="http://www.w3.org/2000/svg"><path fill="none" d="M0 0h24v24H0Z"/><path d="M20 16H4v2h16v-2ZM3 14V4v0c0-.56.44-1 1-1h3v8.273h2V3h11v0c.55 0 1 .44 1 1v10h1v5 0c0 .55-.45 1-1 1h-8v3h-2v-3H3v0c-.56 0-1-.45-1-1v-5h1Z"/></svg>
